X:1
T:Come again
T:Come again
T:John Dowland Musescore: TWL 02.02.2019 Korrekturlest og rettet 20.03.2019 
C:John Dowland
%%score [ 1 2 3 4 ]
L:1/8
Q:1/2=40
M:4/4
K:G
V:1 treble nm="Sopran" snm="S."
V:2 treble nm="Alt" snm="A."
V:3 treble-8 nm="Tenor" snm="T."
V:4 bass nm="Bass" snm="B."
V:1
"^\n" z4 z2 B>c | d4 z2 d2 | e2 d2 c3 c | B4 z2 d2 | d2 c2 B2 B2 | A4 z2 A2 | B2 G2 A3 A | %7
w: Come a-|gain, sweet|love doth now in-|vite thy|gra- ces that re-|frain to|do me due de-|
w: Come a-|gain, that|I may cease to|mourn through|thy in kind dis-|dain. For|now left and for-|
w: Gen- tle|love, draw|forth thy wound- ing|dart, thou|canst not pierce her|heart. For|I, that to ap-|
[M:2/4] A4 |: z D G2 |[M:4/4] z E A2 z F B2 | z G c2 z A d2- | d8 | z dcB A2 z B | %13
w: light.|To see,|to hear, to touch,|to kiss, to die|_|with thee a- gain in|
w: lorn.|I sit,|I sigh, I weep,|I faint, I die|_|in dead- ly pain and|
w: prove.|By sighs|and tears more hot|than are my shafts|_|did tempt, while she for|
 AG G2- GF/E/ F2 |[M:2/4] G4 :| %15
w: sweet- est sym _ _ _ pa-|thy.|
w: end- less mi _ _ _ se-|ry.|
w: scant- y tri _ _ _ umph|laughs.|
V:2
 z4 G3 G | G4 z2 B2 | AG G4 F2 | G4 z2 G2 | (G2 E>)F G3 G | F4 z2 F2 | G3 D E3 E |[M:2/4] F4 |: %8
w: Come a-|gain, sweet|love doth now in-|vite thy|gra _ ses that re-|frain to|do me due de-|light.|
w: Come a-|gain, that|I may cease to|mourn through|thy _ in kind dis-|dain. For|now left and for-|lorn.|
w: Gen- tle|love, draw|forth thy wound- ing|dart, thou|canst _ not pierce her|heart. For|I, that to ap-|prove.|
 D4 |[M:4/4] E2 z E F2 z F | G2 z G A2 z A | B6 A2 | G>F EG F3 G | E2 B,C D3 C |[M:2/4] B,4 :| %15
w: To|see, to hear, to|touch, to kiss, to|die to|die with thee a- gain in|sweet- est _ sym- pa-|thy.|
w: I|sit, I sigh, I|weep, I faint, I|die I|die in dead- ly pain and|end- less _ mi- se-|ry.|
w: By|sighs and tears more|hot than are my|shafts my|shafts did tempt, while she for|scant- y _ tri- umph|laughs.|
V:3
 z4 d3 d | B4 z2 B2 | c2 d2 e3 d/c/ | d4 z2 B2 | B2 A2 G2 B2 | d4 z2 d2 | d3 d d2 ^c2 | %7
w: Come a-|gain, sweet|love doth now in _|vite thy|gra- ces that re-|frain to|do me due de-|
w: Come a-|gain, that|I may cease to _|mourn through|thy in kind dis-|dain. For|now left and for-|
w: Gen- tle|love, draw|forth thy wound- ing _|dart, thou|canst not pierce her|heart. For|I, that to ap-|
[M:2/4] d4 |: G4 |[M:4/4] G2 z c A2 z d | B2 z e d2 z c | BGGA B2 c2 | d2 z G d3 d | %13
w: light.|To|see, to hear, to|touch, to kiss, to|die to die with thee a-|gain with thee a-|
w: lorn.|I|sit, I sigh, I|weep, I faint, I|die I die in dead- ly|pain in dead- ly|
w: prove.|By|sighs and tears more|hot than are my|shafts my shafts did tempt, while|she did tempt, while|
 cB BA/G/ A3 A |[M:2/4] G4 :| %15
w: gain in sweet- est _ sym- pa-|thy.|
w: pain and end- less _ mi- se-|ry.|
w: she for scant- y _ tri- umph|laughs.|
V:4
 z4 G,2 G,2 | G,4 z2 G,,2 | C,2 B,,2 A,,3 A,, | G,,4 z2 G,,2 | G,,2 A,,2 B,,2 G,,2 | D,4 z2 D,2 | %6
w: Come a-|gain, sweet|love doth now in-|vite thy|gra- ces that re-|frain to|
w: Come a-|gain, that|I may cease to|mourn through|thy in kind dis-|dain. For|
w: Gen- tle|love, draw|forth thy wound- ing|dart, thou|canst not pierce her|heart. For|
 G,,2 B,,2 A,,3 A,, |[M:2/4] D,4 |: B,,4 |[M:4/4] C,3 C, D,3 D, | E,3 E, F,3 F, | %11
w: do   me due de-|light.|To|see, to hear, to|touch, to kiss, to|
w: now left and for-|lorn.|I|sit, I sigh, I|weep, I faint, I|
w: I, that to ap-|prove.|By|sighs and tears more|hot than are my|
 G,2 G,,2 G,,2 A,,2 | B,,2 C,2 D,2 B,,2 | C,D, E,2 D,3 D, |[M:2/4] G,,4 :| %15
w: die to die with|thee a- gain in|sweet _ est sym- pa-|thy.|
w: die I die in|dead- ly pain and|end _ less mi se-|ry.|
w: shafts my shafts did|tempt, while she for|scant _ y tri- umph|laughs.|

